; generated by PrusaSlicer 2.9.4 on 2025-12-05 at 16:51:38 UTC

; 

; external perimeters extrusion width = 0.45mm
; perimeters extrusion width = 0.45mm
; infill extrusion width = 0.45mm
; solid infill extrusion width = 0.45mm
; top infill extrusion width = 0.40mm
; first layer extrusion width = 0.70mm

M104 S200 ; set temperature
;TYPE:Custom
G28 ; home all axes
G1 Z5 F5000 ; lift nozzle
M109 S200 ; set temperature and wait for it to be reached
G21 ; set units to millimeters
G90 ; use absolute coordinates
M82 ; use absolute distances for extrusion
G92 E0
; Filament gcode
M107
;LAYER_CHANGE
;Z:0.35
;HEIGHT:0.35
G1 E-2 F2400
G92 E0
G1 Z.35 F7800
G1 X66.435 Y63.181
G1 E2 F2400
;TYPE:Skirt/Brim
;WIDTH:0.7
G1 F1800
G1 X66.474 Y63.14 E2.00515
G1 X67.726 Y62.053 E2.15591
G1 X74.151 Y57.376 E2.87853
G1 X81.749 Y53.611 E3.64958
G1 X90.289 Y51.106 E4.45884
G1 X98.013 Y50.214 E5.16585
G1 X99.357 Y50.169 E5.28813
G1 X107.388 Y50.701 E6.01999
G1 X115.158 Y52.536 E6.74595
G1 X116.781 Y53.1 E6.90219
G1 X123.804 Y56.201 E7.60027
G1 X130.478 Y60.583 E8.32625
G1 X131.538 Y61.413 E8.44867
G1 X136.86 Y66.474 E9.11648
G1 X137.76 Y67.476 E9.23895
G1 X142.514 Y73.971 E9.97084
G1 X146.465 Y81.946 E10.78012
G1 X148.853 Y90.082 E11.55113
G1 X149.833 Y98.715 E12.34117
G1 X149.299 Y107.388 E13.1313
G1 X147.199 Y116.037 E13.9406
G1 X143.799 Y123.804 E14.71155
G1 X139.427 Y130.458 E15.43551
G1 X138.438 Y131.703 E15.58009
G1 X133.016 Y137.349 E16.29187
G1 X126.616 Y142.121 E17.01778
G1 X125.473 Y142.834 E17.14028
G1 X118.898 Y146.103 E17.80796
G1 X117.647 Y146.607 E17.9306
G1 X109.918 Y148.853 E18.66247
G1 X101.284 Y149.833 E19.4526
G1 X92.612 Y149.299 E20.24263
G1 X84.163 Y147.267 E21.0328
G1 X76.196 Y143.799 E21.82289
G1 X69.522 Y139.417 E22.54887
G1 X68.19 Y138.333 E22.70503
G1 X62.651 Y133.016 E23.40318
G1 X57.879 Y126.616 E24.12909
G1 X57.166 Y125.473 E24.25159
G1 X53.955 Y119.011 E24.90772
G1 X53.325 Y117.436 E25.06197
G1 X51.147 Y109.918 E25.77369
G1 X50.167 Y101.284 E26.56382
G1 X50.701 Y92.612 E27.35385
G1 X52.536 Y84.842 E28.07981
G1 X53.076 Y83.274 E28.23061
G1 X56.201 Y76.196 E28.93415
G1 X60.583 Y69.522 E29.66013
G1 X61.413 Y68.462 E29.78255
G1 X66.394 Y63.224 E30.43981
G1 E28.43981 F2400
G92 E0
G92 E0
G1 X107.175 Y103.837 F7800
G1 E2 F2400
;TYPE:External perimeter
;WIDTH:0.646991
G1 F1800
G1 X107.083 Y104.041 E2.01862
;WIDTH:0.648513
G1 X106.581 Y104.078 E2.06062
G1 X106.48 Y104.055 E2.06926
;WIDTH:0.599615
G1 X106.379 Y104.033 E2.07715
;WIDTH:0.550717
G1 X106.278 Y104.01 E2.08432
;WIDTH:0.501819
G1 X106.177 Y103.987 E2.09075
;WIDTH:0.502337
G1 X106.14 Y103.988 E2.09305
;WIDTH:0.551753
G1 X106.103 Y103.988 E2.09562
;WIDTH:0.601168
G1 X106.065 Y103.989 E2.09853
;WIDTH:0.650584
G1 X106.028 Y103.989 E2.10163
;WIDTH:0.7
G1 X105.991 Y103.99 E2.105
G1 X105.658 Y103.527 E2.15686
G1 X105.671 Y103.289 E2.17853
G1 X105.756 Y103.181 E2.19103
G1 X106.099 Y103.077 E2.22362
G1 X106.576 Y102.986 E2.26778
G1 X106.607 Y103.018 E2.27183
;WIDTH:0.657046
G1 X106.638 Y103.049 E2.27554
;WIDTH:0.614093
G1 X106.67 Y103.081 E2.27909
;WIDTH:0.57114
G1 X106.701 Y103.113 E2.28231
;WIDTH:0.528187
G1 X106.733 Y103.145 E2.28529
;WIDTH:0.485234
G1 X106.764 Y103.177 E2.28795
;WIDTH:0.485611
G1 X106.817 Y103.207 E2.29159
;WIDTH:0.528941
G1 X106.869 Y103.236 E2.29552
;WIDTH:0.572271
G1 X106.922 Y103.265 E2.29989
;WIDTH:0.615601
G1 X106.974 Y103.295 E2.30461
;WIDTH:0.658931
G1 X107.027 Y103.324 E2.30974
G1 X107.267 Y103.637 E2.34325
;WIDTH:0.646991
G1 X107.2 Y103.783 E2.35662
G1 X107.732 Y102.532 F7800
;WIDTH:0.646987
G1 F1800
G1 X107.677 Y102.749 E2.37525
;WIDTH:0.648493
G1 X107.19 Y102.873 E2.41718
G1 X107.087 Y102.868 E2.42578
;WIDTH:0.599729
G1 X106.983 Y102.863 E2.43373
;WIDTH:0.550966
G1 X106.879 Y102.859 E2.44094
;WIDTH:0.502203
G1 X106.775 Y102.854 E2.44741
;WIDTH:0.502752
G1 X106.739 Y102.861 E2.44969
;WIDTH:0.552064
G1 X106.702 Y102.868 E2.4523
;WIDTH:0.601376
G1 X106.666 Y102.875 E2.45511
;WIDTH:0.650688
G1 X106.629 Y102.882 E2.45826
;WIDTH:0.7
G1 X106.592 Y102.889 E2.46168
G1 X106.185 Y102.49 E2.51351
G1 X106.156 Y102.254 E2.53513
G1 X106.221 Y102.133 E2.54762
G1 X106.54 Y101.972 E2.58011
G1 X106.994 Y101.799 E2.62429
G1 X107.031 Y101.825 E2.6284
;WIDTH:0.656868
G1 X107.067 Y101.851 E2.63216
;WIDTH:0.613737
G1 X107.104 Y101.877 E2.6357
;WIDTH:0.570605
G1 X107.14 Y101.903 E2.6389
;WIDTH:0.527474
G1 X107.177 Y101.929 E2.64188
;WIDTH:0.484342
G1 X107.27 Y101.975 E2.64806
;WIDTH:0.527623
G1 X107.327 Y101.995 E2.65204
;WIDTH:0.570829
G1 X107.383 Y102.014 E2.65631
;WIDTH:0.614035
G1 X107.44 Y102.034 E2.66105
;WIDTH:0.657241
G1 X107.497 Y102.054 E2.66617
G1 X107.787 Y102.319 E2.69945
;WIDTH:0.646987
G1 X107.747 Y102.474 E2.71277
G1 X108.054 Y101.151 F7800
;WIDTH:0.646989
G1 F1800
G1 X108.037 Y101.374 E2.73138
;WIDTH:0.648515
G1 X107.578 Y101.581 E2.77339
G1 X107.476 Y101.594 E2.78197
;WIDTH:0.59962
G1 X107.373 Y101.608 E2.7899
;WIDTH:0.550726
G1 X107.271 Y101.621 E2.79702
;WIDTH:0.501832
G1 X107.168 Y101.634 E2.80347
;WIDTH:0.50235
G1 X107.133 Y101.647 E2.80579
;WIDTH:0.551762
G1 X107.098 Y101.66 E2.80838
;WIDTH:0.601175
G1 X107.064 Y101.674 E2.81119
;WIDTH:0.650587
G1 X107.029 Y101.687 E2.81432
;WIDTH:0.7
G1 X106.994 Y101.7 E2.81771
G1 X106.523 Y101.379 E2.86954
G1 X106.453 Y101.189 E2.88795
G1 X106.497 Y101.021 E2.90374
G1 X106.784 Y100.806 E2.93635
G1 X107.2 Y100.557 E2.98044
G1 X107.225 Y100.574 E2.98319
;WIDTH:0.650586
G1 X107.25 Y100.591 E2.98572
;WIDTH:0.601172
G1 X107.275 Y100.609 E2.98808
;WIDTH:0.551758
G1 X107.299 Y100.626 E2.99012
;WIDTH:0.502344
G1 X107.324 Y100.644 E2.99204
;WIDTH:0.493793
G1 X107.407 Y100.659 E2.99718
;WIDTH:0.534655
G1 X107.49 Y100.675 E3.00283
;WIDTH:0.575517
G1 X107.573 Y100.69 E3.00897
;WIDTH:0.616379
G1 X107.656 Y100.706 E3.01563
;WIDTH:0.657241
G1 X107.739 Y100.721 E3.02277
G1 X108.071 Y100.932 E3.05609
;WIDTH:0.646989
G1 X108.059 Y101.091 E3.06936
G1 X108.136 Y99.734 F7800
;WIDTH:0.494702
G1 F1800
G1 X108.14 Y99.745 E3.07007
;WIDTH:0.486414
G1 X108.142 Y99.788 E3.07265
;WIDTH:0.526558
G1 X108.145 Y99.83 E3.07542
;WIDTH:0.566701
G1 X108.148 Y99.873 E3.0785
;WIDTH:0.606845
G1 X108.151 Y99.915 E3.08176
;WIDTH:0.646989
G1 X108.154 Y99.958 E3.08535
;WIDTH:0.648513
G1 X107.738 Y100.241 E3.12733
G1 X107.631 Y100.273 E3.13665
;WIDTH:0.599617
G1 X107.524 Y100.304 E3.14515
;WIDTH:0.550722
G1 X107.417 Y100.335 E3.15286
;WIDTH:0.501826
G1 X107.31 Y100.366 E3.15978
;WIDTH:0.502344
G1 X107.285 Y100.385 E3.16173
;WIDTH:0.551758
G1 X107.259 Y100.404 E3.16396
;WIDTH:0.601172
G1 X107.234 Y100.422 E3.16632
;WIDTH:0.650586
G1 X107.208 Y100.441 E3.16902
;WIDTH:0.7
G1 X107.183 Y100.46 E3.17188
G1 X106.664 Y100.225 E3.22368
G1 X106.556 Y100.012 E3.2454
G1 X106.575 Y99.877 E3.2578
G1 X106.821 Y99.615 E3.29048
G1 X107.188 Y99.298 E3.33458
G1 X107.215 Y99.311 E3.3373
;WIDTH:0.650681
G1 X107.242 Y99.323 E3.33977
;WIDTH:0.601363
G1 X107.27 Y99.336 E3.34213
;WIDTH:0.552044
G1 X107.297 Y99.349 E3.34421
;WIDTH:0.502726
G1 X107.325 Y99.362 E3.34613
;WIDTH:0.49451
G1 X107.409 Y99.362 E3.35126
;WIDTH:0.535613
G1 X107.494 Y99.363 E3.35696
;WIDTH:0.576715
G1 X107.578 Y99.364 E3.36309
;WIDTH:0.617818
G1 X107.663 Y99.365 E3.3698
;WIDTH:0.658921
G1 X107.747 Y99.365 E3.37694
G1 X108.067 Y99.494 E3.40625
;WIDTH:0.639997
G1 X108.085 Y99.557 E3.41164
;WIDTH:0.591565
G1 X108.103 Y99.62 E3.41656
;WIDTH:0.543134
G1 X108.12 Y99.677 E3.42061
G1 X107.719 Y100.482 F7800
;WIDTH:0.657241
G1 F1800
G1 X107.701 Y100.269 E3.43872
;WIDTH:0.648513
G1 X108.154 Y99.958 E3.48457
;WIDTH:0.646989
G1 X108.242 Y99.932 E3.49221
;WIDTH:0.599439
G1 X108.33 Y99.907 E3.49919
;WIDTH:0.551889
G1 X108.419 Y99.881 E3.50562
;WIDTH:0.504339
G1 X108.507 Y99.855 E3.51135
;WIDTH:0.498223
G1 X108.582 Y99.868 E3.51604
;WIDTH:0.539656
G1 X108.657 Y99.88 E3.52117
;WIDTH:0.581089
G1 X108.731 Y99.892 E3.52669
;WIDTH:0.622522
G1 X108.806 Y99.905 E3.53275
;WIDTH:0.663955
G1 X108.881 Y99.917 E3.53926
G1 X109.379 Y100.252 E3.59069
;WIDTH:0.639441
G1 X109.388 Y100.315 E3.59592
;WIDTH:0.592557
G1 X109.397 Y100.379 E3.60079
;WIDTH:0.545674
G1 X109.405 Y100.442 E3.60514
;WIDTH:0.49879
G1 X109.414 Y100.506 E3.60912
;WIDTH:0.499989
G1 X109.399 Y100.565 E3.61288
;WIDTH:0.548071
G1 X109.383 Y100.625 E3.61715
;WIDTH:0.596153
G1 X109.367 Y100.685 E3.62186
;WIDTH:0.644235
G1 X109.352 Y100.744 E3.6269
;WIDTH:0.647537
G1 X108.842 Y100.996 E3.67428
G1 X108.749 Y101.009 E3.6821
;WIDTH:0.599853
G1 X108.656 Y101.022 E3.68927
;WIDTH:0.552169
G1 X108.562 Y101.035 E3.69586
;WIDTH:0.504485
G1 X108.469 Y101.048 E3.70173
;WIDTH:0.502498
G1 X108.357 Y101.01 E3.70909
;WIDTH:0.548195
G1 X108.244 Y100.971 E3.71732
;WIDTH:0.593892
G1 X108.131 Y100.933 E3.72632
;WIDTH:0.639589
G1 X108.019 Y100.895 E3.73603
;WIDTH:0.657241
G1 X107.739 Y100.721 E3.76395
G1 X107.724 Y100.542 E3.77917
G1 X108.881 Y99.678 F7800
;WIDTH:0.663955
G1 F1800
G1 X108.88 Y99.446 E3.79905
;WIDTH:0.647559
G1 X109.34 Y99.108 E3.8466
;WIDTH:0.644299
G1 X109.428 Y99.08 E3.85425
;WIDTH:0.596208
G1 X109.517 Y99.052 E3.86132
;WIDTH:0.548117
G1 X109.605 Y99.024 E3.86768
;WIDTH:0.500026
G1 X109.693 Y98.996 E3.87339
;WIDTH:0.451935
G1 X109.781 Y99.007 E3.87825
;WIDTH:0.447209
G1 X109.812 Y99.047 E3.88099
;WIDTH:0.445702
G1 X109.851 Y99.048 E3.88309
;WIDTH:0.489169
G1 X109.891 Y99.048 E3.8855
;WIDTH:0.532636
G1 X109.93 Y99.049 E3.8881
;WIDTH:0.576103
G1 X109.969 Y99.05 E3.89094
;WIDTH:0.61957
G1 X110.009 Y99.05 E3.89411
;WIDTH:0.663037
G1 X110.048 Y99.051 E3.89745
G1 X110.532 Y99.383 E3.94766
;WIDTH:0.661785
G1 X110.812 Y99.591 E3.97744
;WIDTH:0.649863
G1 X110.802 Y99.639 E3.98154
;WIDTH:0.602215
G1 X110.791 Y99.687 E3.98532
;WIDTH:0.554568
G1 X110.781 Y99.736 E3.98881
;WIDTH:0.50692
G1 X110.771 Y99.784 E3.99189
;WIDTH:0.459273
G1 X110.764 Y99.869 E3.99666
;WIDTH:0.506861
G1 X110.766 Y99.905 E3.99893
;WIDTH:0.554479
G1 X110.769 Y99.941 E4.00145
;WIDTH:0.602097
G1 X110.772 Y99.977 E4.00422
;WIDTH:0.649715
G1 X110.774 Y100.013 E4.00723
G1 X110.136 Y100.346 E4.0674
;WIDTH:0.646633
G1 X110.027 Y100.35 E4.07647
;WIDTH:0.597951
G1 X109.917 Y100.354 E4.08484
;WIDTH:0.54927
G1 X109.808 Y100.357 E4.09236
;WIDTH:0.500588
G1 X109.699 Y100.361 E4.09911
;WIDTH:0.49879
G1 X109.619 Y100.334 E4.10432
;WIDTH:0.545674
G1 X109.539 Y100.306 E4.11012
;WIDTH:0.592557
G1 X109.459 Y100.279 E4.11648
;WIDTH:0.639441
G1 X109.379 Y100.252 E4.12341
;WIDTH:0.663955
G1 X108.881 Y99.917 E4.17484
G1 X108.881 Y99.738 E4.19018
G1 X108.801 Y101.228 F7800
;WIDTH:0.663957
G1 F1800
G1 X108.842 Y100.996 E4.21037
;WIDTH:0.647537
G1 X109.353 Y100.744 E4.25783
;WIDTH:0.451907
G1 X109.806 Y100.72 E4.2827
;WIDTH:0.447523
G1 X109.829 Y100.765 E4.28544
;WIDTH:0.446599
G1 X109.866 Y100.772 E4.28748
;WIDTH:0.490185
G1 X109.904 Y100.778 E4.2898
;WIDTH:0.533771
G1 X109.942 Y100.785 E4.29238
;WIDTH:0.577357
G1 X109.98 Y100.791 E4.29519
;WIDTH:0.620943
G1 X110.018 Y100.798 E4.29826
;WIDTH:0.664529
G1 X110.055 Y100.804 E4.30147
G1 X110.673 Y101.427 E4.37673
;WIDTH:0.649725
G1 X110.608 Y101.883 E4.41524
G1 X109.92 Y102.101 E4.47559
;WIDTH:0.646673
G1 X109.813 Y102.086 E4.48458
;WIDTH:0.597981
G1 X109.705 Y102.07 E4.49289
;WIDTH:0.54929
G1 X109.597 Y102.055 E4.50041
;WIDTH:0.500599
G1 X109.489 Y102.04 E4.50716
;WIDTH:0.498792
G1 X109.415 Y101.999 E4.51238
;WIDTH:0.545676
G1 X109.341 Y101.958 E4.51817
;WIDTH:0.59256
G1 X109.267 Y101.917 E4.52454
;WIDTH:0.639445
G1 X109.193 Y101.876 E4.53149
;WIDTH:0.663957
G1 X108.761 Y101.46 E4.58288
G1 X108.791 Y101.287 E4.59792
G1 E2.59792 F2400
G92 E0
G1 X109.358 Y98.86 F7800
G1 E2 F2400
;WIDTH:0.498812
G1 F1800
G1 X109.359 Y98.863 E2.00019
;WIDTH:0.500027
G1 X109.354 Y98.925 E2.00404
;WIDTH:0.548119
G1 X109.349 Y98.986 E2.00825
;WIDTH:0.596211
G1 X109.344 Y99.048 E2.01297
;WIDTH:0.644303
G1 X109.339 Y99.109 E2.01804
;WIDTH:0.647559
G1 X108.88 Y99.446 E2.06547
G1 X108.783 Y99.475 E2.0739
;WIDTH:0.599866
G1 X108.685 Y99.505 E2.08173
;WIDTH:0.552174
G1 X108.587 Y99.534 E2.08882
;WIDTH:0.504482
G1 X108.489 Y99.563 E2.09521
;WIDTH:0.502703
G1 X108.38 Y99.545 E2.10208
;WIDTH:0.548616
G1 X108.271 Y99.526 E2.1097
;WIDTH:0.594529
G1 X108.162 Y99.507 E2.11806
;WIDTH:0.640443
G1 X108.052 Y99.488 E2.12724
;WIDTH:0.658921
G1 X107.747 Y99.365 E2.15518
G1 X107.632 Y98.926 E2.19373
;WIDTH:0.652703
G1 X107.989 Y98.579 E2.23557
;WIDTH:0.642555
G1 X108.08 Y98.529 E2.24414
;WIDTH:0.596103
G1 X108.171 Y98.48 E2.25198
;WIDTH:0.549652
G1 X108.261 Y98.43 E2.25909
;WIDTH:0.503201
G1 X108.352 Y98.38 E2.26556
;WIDTH:0.498191
G1 X108.428 Y98.379 E2.27024
;WIDTH:0.539633
G1 X108.504 Y98.379 E2.27538
;WIDTH:0.581075
G1 X108.58 Y98.378 E2.28098
;WIDTH:0.622517
G1 X108.656 Y98.377 E2.28703
;WIDTH:0.663959
G1 X108.732 Y98.376 E2.29354
G1 X109.28 Y98.619 E2.3449
;WIDTH:0.639443
G1 X109.3 Y98.68 E2.35017
;WIDTH:0.592566
G1 X109.32 Y98.741 E2.355
;WIDTH:0.545689
G1 X109.339 Y98.802 E2.35937
G1 X108.691 Y98.144 F7800
;WIDTH:0.663959
G1 F1800
G1 X108.649 Y97.912 E2.37957
;WIDTH:0.647447
G1 X109.044 Y97.5 E2.4271
;WIDTH:0.644203
G1 X109.148 Y97.456 E2.43645
;WIDTH:0.595007
G1 X109.252 Y97.412 E2.44499
;WIDTH:0.545812
G1 X109.356 Y97.368 E2.45272
;WIDTH:0.496616
G1 X109.46 Y97.324 E2.45965
;WIDTH:0.447421
G1 X109.493 Y97.355 E2.4621
;WIDTH:0.447873
G1 X109.533 Y97.349 E2.46429
;WIDTH:0.489957
G1 X109.573 Y97.343 E2.46673
;WIDTH:0.532041
G1 X109.613 Y97.337 E2.46942
;WIDTH:0.574125
G1 X109.652 Y97.33 E2.4723
;WIDTH:0.616209
G1 X109.692 Y97.324 E2.47548
;WIDTH:0.658293
G1 X109.732 Y97.318 E2.47891
G1 X110.267 Y97.561 E2.52877
;WIDTH:0.655729
G1 X110.532 Y97.695 E2.55386
;WIDTH:0.649761
G1 X110.611 Y98.143 E2.5919
G1 X110.041 Y98.582 E2.65206
;WIDTH:0.646681
G1 X109.934 Y98.604 E2.66115
;WIDTH:0.597994
G1 X109.828 Y98.627 E2.6694
;WIDTH:0.549308
G1 X109.721 Y98.649 E2.67694
;WIDTH:0.500621
G1 X109.615 Y98.671 E2.68364
;WIDTH:0.498812
G1 X109.531 Y98.658 E2.68888
;WIDTH:0.545689
G1 X109.447 Y98.645 E2.6947
;WIDTH:0.592566
G1 X109.364 Y98.632 E2.70103
;WIDTH:0.639443
G1 X109.28 Y98.619 E2.70801
;WIDTH:0.663959
G1 X108.732 Y98.376 E2.75937
G1 X108.701 Y98.203 E2.77443
G1 X110.034 Y98.827 F7800
;WIDTH:0.447209
G1 F1800
G1 X110.029 Y98.82 E2.7749
;WIDTH:0.497077
G1 X110.032 Y98.76 E2.77859
;WIDTH:0.546945
G1 X110.035 Y98.701 E2.78265
;WIDTH:0.596813
G1 X110.038 Y98.641 E2.78721
;WIDTH:0.646681
G1 X110.041 Y98.582 E2.79212
G1 X110.573 Y98.175 E2.84783
;WIDTH:0.645437
G1 X110.68 Y98.15 E2.85695
;WIDTH:0.595863
G1 X110.786 Y98.126 E2.86519
;WIDTH:0.54629
G1 X110.892 Y98.101 E2.87266
;WIDTH:0.496716
G1 X110.999 Y98.077 E2.87939
;WIDTH:0.447143
G1 X111.028 Y98.115 E2.88198
;WIDTH:0.445573
G1 X111.068 Y98.115 E2.88414
;WIDTH:0.487625
G1 X111.108 Y98.116 E2.88654
;WIDTH:0.529676
G1 X111.148 Y98.117 E2.88919
;WIDTH:0.571728
G1 X111.188 Y98.117 E2.89208
;WIDTH:0.613779
G1 X111.228 Y98.118 E2.89522
;WIDTH:0.655831
G1 X111.268 Y98.118 E2.8986
;WIDTH:0.646397
G1 X112.239 Y98.781 E2.99634
;WIDTH:0.650907
G1 X112.251 Y99.243 E3.03506
G1 X111.493 Y99.64 E3.10675
;WIDTH:0.645733
G1 X111.386 Y99.644 E3.11564
;WIDTH:0.596703
G1 X111.279 Y99.648 E3.12377
;WIDTH:0.547673
G1 X111.172 Y99.652 E3.13113
;WIDTH:0.498643
G1 X111.065 Y99.657 E3.13773
G1 X110.989 Y99.63 E3.1427
;WIDTH:0.547799
G1 X110.913 Y99.603 E3.14825
;WIDTH:0.596892
G1 X110.837 Y99.576 E3.15437
;WIDTH:0.645985
G1 X110.761 Y99.549 E3.16107
;WIDTH:0.663037
G1 X110.048 Y99.051 E3.23547
G1 X110.05 Y99.019 E3.23821
;WIDTH:0.61957
G1 X110.052 Y98.987 E3.24075
;WIDTH:0.576103
G1 X110.054 Y98.956 E3.24301
;WIDTH:0.532636
G1 X110.056 Y98.924 E3.24514
;WIDTH:0.489169
G1 X110.058 Y98.892 E3.24707
;WIDTH:0.445702
G1 X110.058 Y98.878 E3.24782
G1 X111.265 Y97.882 F7800
;WIDTH:0.456393
G1 F1800
G1 X111.265 Y97.852 E3.24948
;WIDTH:0.455238
G1 X111.255 Y97.818 E3.25144
;WIDTH:0.503943
G1 X111.246 Y97.784 E3.25363
;WIDTH:0.552647
G1 X111.236 Y97.75 E3.25609
;WIDTH:0.601352
G1 X111.227 Y97.716 E3.25878
;WIDTH:0.650057
G1 X111.217 Y97.682 E3.26174
G1 X111.896 Y97.158 E3.3335
;WIDTH:0.646577
G1 X111.985 Y97.128 E3.34131
;WIDTH:0.59744
G1 X112.073 Y97.098 E3.34838
;WIDTH:0.548303
G1 X112.162 Y97.068 E3.35485
;WIDTH:0.499166
G1 X112.25 Y97.038 E3.36059
;WIDTH:0.49131
G1 X112.326 Y97.049 E3.36524
